X:526
T:Ballydesmond polka 1
T:The Jib polka
T:Maurice Manley's
R:Polka
O:Ireland
B:Ceol Rince 2 n117
S:My arrangement from various sources
Z:Transcription, arrangement, chords:Mike Long
M:2/4
L:1/8
K:G
"Am"EA A>B|cd eg|"G"G2 G>A|GE ED|"Am"EA A>B|\
cd ef|"G"ge dB|[1 "G"BA A/B/A/G/:|[2 "Am"BA A2|]
|:"Am"a>g ab|ag ef|"G"g>f ga|ge ed|"Am"ea a>b|ag ef|\
"G"ge dB|[1 "Am"BA A2:|[2 "G"BA A/B/A/G/|]
